lib/brands/logos/service-now.svg

<svg xmlns="http://www.w3.org/2000/svg" fill="none" aria-hidden="true" viewBox="0 0 260 45"><g id="ServiceNow"><g id="Group"><path id="Vector" fill="#81B5A1" fill-rule="evenodd" d="M202.383 14.8646C194.308 14.8646 187.964 21.2089 187.964 29.2834C187.964 33.5129 189.694 37.3579 192.386 40.0495C193.347 41.0107 195.077 41.0107 196.231 40.2417C197.769 38.8959 200.076 38.1269 202.383 38.1269C204.882 38.1269 206.804 38.8959 208.535 40.2417C209.688 41.203 211.226 41.0107 212.38 39.8572C215.071 37.1657 216.801 33.5129 216.801 29.2834C216.609 21.4011 210.265 14.8646 202.383 14.8646V14.8646ZM202.19 36.7812C197.769 36.7812 194.885 33.5129 194.885 29.4757C194.885 25.4384 197.769 22.1701 202.19 22.1701C206.612 22.1701 209.496 25.4384 209.496 29.4757C209.496 33.5129 206.612 36.7812 202.19 36.7812Z" clip-rule="evenodd"/><g id="Union"><path fill="#293E40" d="M102.603 3.71423C105.102 3.71423 107.025 5.63674 107.025 7.94375C107.025 10.443 105.102 12.1733 102.603 12.1733C100.104 12.1733 98.3737 10.2508 98.3737 7.94375C98.3737 5.44449 100.104 3.71423 102.603 3.71423Z"/><path fill="#293E40" d="M14.5532 35.047C12.2462 35.047 9.55471 34.0858 7.82445 32.5478L4.74844 37.5463C7.6322 39.661 11.285 40.8145 14.7455 40.8145C19.9362 40.8145 24.5503 37.9308 24.5503 33.1245C24.5503 27.7665 19.9045 26.2431 16.3675 25.0832C14.1935 24.3704 12.4385 23.7948 12.4385 22.5507C12.4385 21.205 13.7842 20.436 15.7067 20.436C17.5051 20.436 18.967 21.2771 20.2498 22.0151C20.3384 22.0661 20.4261 22.1166 20.513 22.1662L23.589 17.36C21.8588 16.0142 18.3982 14.8607 15.13 14.8607C10.3237 14.8607 5.7097 17.7445 5.7097 22.5507C5.7097 27.1916 9.90838 28.6336 13.3616 29.8195C15.7734 30.6477 17.8215 31.3511 17.8215 32.9323C17.8215 34.0858 16.2835 35.047 14.5532 35.047Z"/><path fill="#293E40" d="M58.7714 17.5561C60.6939 16.0181 63.0009 15.0568 65.6924 15.0568C66.2691 15.0568 67.0381 15.2491 67.8071 15.4413V21.7856C67.0381 21.5933 66.0769 21.4011 65.1156 21.4011C62.2319 21.4011 59.9249 23.1314 58.9636 24.4771V40.2417H52.2348V15.4413H58.7714V17.5561Z"/><path fill="#293E40" fill-rule="evenodd" d="M49.351 27.5492C49.351 20.6282 44.5448 14.8607 37.6238 14.8607C30.3182 14.8607 25.512 21.0127 25.512 27.7415C25.512 35.6238 31.0872 40.6223 38.3928 40.6223C42.2378 40.6223 46.0828 39.0843 48.582 36.2005L44.737 32.3555C43.5835 33.7013 41.2765 35.2393 38.585 35.2393C35.1245 35.2393 32.2407 32.74 31.8562 29.2795H48.9665C49.351 28.895 49.351 28.3182 49.351 27.5492ZM32.433 24.6655C32.8175 22.3585 35.1245 20.2437 37.816 20.2437C40.5075 20.2437 42.43 22.3585 42.8145 24.6655H32.433Z" clip-rule="evenodd"/><path fill="#293E40" d="M85.6852 40.2419L97.028 15.4415H90.107L83.3782 30.6293L76.4572 15.4415H69.7284L81.0712 40.2419H85.6852Z"/><path fill="#293E40" d="M99.3349 15.4413H106.064V40.2416H99.3349V15.4413Z"/><path fill="#293E40" d="M133.364 35.047C130.481 38.892 126.828 40.6223 122.214 40.6223C114.524 40.6223 108.949 34.8548 108.949 27.7415C108.949 20.436 114.716 14.8607 122.214 14.8607C126.636 14.8607 130.288 16.9755 132.595 19.8592L128.174 23.8965C126.828 22.1662 124.905 21.0127 122.598 21.0127C118.753 21.0127 115.87 24.0887 115.87 27.7415C115.87 31.5865 118.561 34.4703 122.598 34.4703C125.29 34.4703 127.405 32.9323 128.558 31.202L133.364 35.047Z"/><path fill="#293E40" fill-rule="evenodd" d="M147.207 40.6223C151.052 40.6223 154.897 39.0843 157.396 36.2005L153.551 32.5478C152.397 33.8935 150.09 35.4315 147.399 35.4315C143.938 35.4315 141.055 32.9323 140.67 29.4717H157.973C158.165 28.895 158.165 28.3182 158.165 27.5492C158.165 20.6282 153.166 14.8607 146.438 14.8607C138.94 14.8607 134.326 20.8205 134.326 27.7415C134.326 35.6238 139.901 40.6223 147.207 40.6223ZM146.245 20.2437C149.129 20.2437 151.052 22.5507 151.244 24.6655H140.862C141.247 22.3585 143.554 20.2437 146.245 20.2437Z" clip-rule="evenodd"/><path fill="#293E40" d="M160.664 40.2378V15.4374H167.008V17.5522C168.931 16.0142 171.238 15.0529 173.93 15.0529C177.39 15.0529 180.466 16.5909 182.581 19.0902C184.119 21.0127 185.272 23.512 185.272 27.7415V40.43H178.544V27.1647C178.544 24.6655 177.967 23.3197 177.006 22.5507C176.044 21.5895 174.891 21.0127 173.161 21.0127C170.469 21.0127 168.162 22.743 167.008 24.0887V40.2378H160.664Z"/><path fill="#293E40" d="M221.608 15.4415H215.071L224.876 40.2419H229.874L235.065 26.2076L240.448 40.2419H245.447L255.252 15.4415H248.523L243.14 29.6681L237.949 15.4415H232.374L226.991 29.6681L221.608 15.4415Z"/></g></g></g></svg>

<svg xmlns="http://www.w3.org/2000/svg" fill="none" aria-hidden="true" viewBox="0 0 260 45"><path fill="#81B5A1" fill-rule="evenodd" d="M202.383 14.865c-8.075 0-14.419 6.344-14.419 14.418 0 4.23 1.73 8.075 4.422 10.767.961.96 2.691.96 3.845.192 1.538-1.346 3.845-2.115 6.152-2.115 2.499 0 4.421.769 6.152 2.115 1.153.961 2.691.769 3.845-.385 2.691-2.691 4.421-6.344 4.421-10.574-.192-7.882-6.536-14.418-14.418-14.418Zm-.193 21.916c-4.421 0-7.305-3.268-7.305-7.305 0-4.038 2.884-7.306 7.305-7.306 4.422 0 7.306 3.268 7.306 7.306 0 4.037-2.884 7.305-7.306 7.305Z" clip-rule="evenodd"/><path fill="#293E40" d="M102.603 3.714c2.499 0 4.422 1.923 4.422 4.23 0 2.5-1.923 4.23-4.422 4.23-2.499 0-4.23-1.923-4.23-4.23 0-2.5 1.731-4.23 4.23-4.23Zm-88.05 31.333c-2.307 0-4.998-.961-6.729-2.5l-3.076 5c2.884 2.114 6.537 3.268 9.997 3.268 5.191 0 9.805-2.884 9.805-7.69 0-5.358-4.646-6.882-8.183-8.042-2.174-.713-3.929-1.288-3.929-2.532 0-1.346 1.346-2.115 3.269-2.115 1.798 0 3.26.841 4.543 1.58l.263.15 3.076-4.806c-1.73-1.346-5.19-2.5-8.46-2.5-4.805 0-9.42 2.884-9.42 7.69 0 4.642 4.2 6.084 7.652 7.27 2.412.828 4.46 1.531 4.46 3.112 0 1.154-1.538 2.115-3.268 2.115Zm44.218-17.491c1.923-1.538 4.23-2.5 6.921-2.5.577 0 1.346.193 2.115.385v6.345c-.769-.193-1.73-.385-2.691-.385-2.884 0-5.191 1.73-6.152 3.076v15.765h-6.73v-24.8h6.537v2.114Z"/><path fill="#293E40" fill-rule="evenodd" d="M49.351 27.55c0-6.922-4.806-12.69-11.727-12.69-7.306 0-12.112 6.153-12.112 12.882 0 7.882 5.575 12.88 12.88 12.88 3.846 0 7.69-1.538 10.19-4.421l-3.845-3.845c-1.154 1.345-3.46 2.883-6.152 2.883-3.46 0-6.344-2.499-6.729-5.96h17.11c.385-.384.385-.96.385-1.73Zm-16.918-2.884c.385-2.308 2.691-4.422 5.383-4.422 2.691 0 4.614 2.114 4.998 4.422h-10.38Z" clip-rule="evenodd"/><path fill="#293E40" d="m85.685 40.242 11.343-24.8h-6.921l-6.729 15.187-6.92-15.187h-6.73l11.343 24.8h4.614Zm13.65-24.801h6.729v24.8h-6.73v-24.8Zm34.029 19.606c-2.883 3.845-6.536 5.575-11.15 5.575-7.69 0-13.265-5.767-13.265-12.88 0-7.306 5.767-12.881 13.265-12.881 4.422 0 8.074 2.114 10.381 4.998l-4.421 4.037c-1.346-1.73-3.269-2.883-5.576-2.883-3.845 0-6.728 3.076-6.728 6.729 0 3.845 2.691 6.728 6.728 6.728 2.692 0 4.807-1.538 5.96-3.268l4.806 3.845Z"/><path fill="#293E40" fill-rule="evenodd" d="M147.207 40.622c3.845 0 7.69-1.538 10.189-4.421l-3.845-3.653c-1.154 1.346-3.461 2.884-6.152 2.884-3.461 0-6.344-2.5-6.729-5.96h17.303c.192-.577.192-1.154.192-1.923 0-6.92-4.999-12.688-11.727-12.688-7.498 0-12.112 5.96-12.112 12.88 0 7.883 5.575 12.881 12.881 12.881Zm-.962-20.378c2.884 0 4.807 2.307 4.999 4.422h-10.382c.385-2.308 2.692-4.422 5.383-4.422Z" clip-rule="evenodd"/><path fill="#293E40" d="M160.664 40.238v-24.8h6.344v2.114c1.923-1.538 4.23-2.499 6.921-2.499 3.461 0 6.537 1.538 8.652 4.037 1.538 1.923 2.691 4.422 2.691 8.651v12.69h-6.728V27.164c0-2.5-.577-3.845-1.539-4.614-.961-.961-2.114-1.538-3.845-1.538-2.691 0-4.998 1.73-6.152 3.076v16.149h-6.344Zm60.944-24.796h-6.537l9.805 24.8h4.998l5.191-14.034 5.383 14.034h4.999l9.805-24.8h-6.729l-5.383 14.226-5.191-14.226h-5.575l-5.383 14.226-5.383-14.226Z"/></svg>
